svg/black/bld.svg

<?xml version="1.0" encoding="UTF-8"?>
<svg xmlns="http://www.w3.org/2000/svg" xmlns:xlink="http://www.w3.org/1999/xlink" width="32px" height="32px" viewBox="0 0 32 32" version="1.1">
<g id="surface1">
<path style=" stroke:none;fill-rule:nonzero;fill:rgb(73.333333%,17.647059%,25.098039%);fill-opacity:1;" d="M 27.183594 26.242188 L 27.183594 5.496094 L 13.597656 5.496094 L 13.597656 26.242188 Z M 18.132812 12.417969 L 22.65625 12.417969 L 22.65625 19.332031 L 18.125 19.332031 Z M 18.132812 12.417969 "/>
<path style=" stroke:none;fill-rule:nonzero;fill:rgb(73.333333%,17.647059%,25.098039%);fill-opacity:1;" d="M 4.539062 12.40625 L 9.066406 12.40625 L 9.066406 19.320312 L 4.539062 19.320312 Z M 4.539062 12.40625 "/>
</g>
</svg>

<svg xmlns="http://www.w3.org/2000/svg" width="32" height="32" viewBox="0 0 32 32"><path d="M27.184 26.242V5.496H13.598v20.746Zm-9.051-13.824h4.523v6.914h-4.531ZM4.54 12.406h4.526v6.914H4.54Zm0 0" style="stroke:none;fill-rule:nonzero;fill:#bb2d40;fill-opacity:1"/></svg>
